public/grab.svg

<?xml version="1.0" encoding="utf-8"?>
<svg viewBox="0 0 512 512" fill="#ffffff" stroke="#ffffff" xmlns="http://www.w3.org/2000/svg">
  <g id="SVGRepo_bgCarrier" stroke-width="0"/>
  <g id="SVGRepo_tracerCarrier" stroke-linecap="round" stroke-linejoin="round"/>
  <g id="SVGRepo_iconCarrier" style="filter: none;" transform="matrix(1.1327990293502808, 0, 0, 1.1327990293502808, -34.33869171142578, -145.27317810058594)">
    <path d="M 479.93 317.12 C 479.918 299.999 468.26 285.081 451.65 280.93 L 416 272 L 416 222.41 C 416 210.97 406.31 201.12 392.85 198.87 L 354.45 192.47 C 336.63 189.5 320 200.86 320 216 L 320 248 C 320 254.158 313.333 258.007 308 254.928 C 305.525 253.499 304 250.858 304 248 L 304 242.602 C 304 216.322 283.75 193.402 257.48 192.602 C 230.394 191.766 207.987 213.503 208 240.602 L 208 248 C 208 254.158 201.333 258.007 196 254.928 C 193.525 253.499 192 250.858 192 248 L 192 216 C 192 200.85 175.37 189.49 157.55 192.46 L 126.87 197.58 C 108.87 200.58 96 213.7 96 228.96 L 96 376 C 96 382.158 89.333 386.007 84 382.928 C 81.525 381.499 80 378.858 80 376 L 80 300 L 52.64 315 C 39.99 321.326 31.999 334.256 32 348.4 L 32 421.87 C 31.998 431.768 35.93 441.261 42.93 448.26 L 73.86 479.19 C 94.862 500.195 123.347 511.997 153.05 512 L 368.05 512 C 429.886 511.972 480 461.836 480 400 L 479.93 317.12 Z"/>
  </g>
</svg>

<!DOCTYPE svg PUBLIC "-//W3C//DTD SVG 1.1//EN" "http://www.w3.org/Graphics/SVG/1.1/DTD/svg11.dtd">
<!-- Uploaded to: SVG Repo, www.svgrepo.com, Transformed by: SVG Repo Mixer Tools -->
<svg fill="#ffffff" width="800px" height="800px" viewBox="0 0 512 512" xmlns="http://www.w3.org/2000/svg" stroke="#ffffff">
<g id="SVGRepo_bgCarrier" stroke-width="0"/>
<g id="SVGRepo_tracerCarrier" stroke-linecap="round" stroke-linejoin="round"/>
<g id="SVGRepo_iconCarrier">
<path d="M479.93 317.12a37.33 37.33 0 0 0-28.28-36.19L416 272v-49.59c0-11.44-9.69-21.29-23.15-23.54l-38.4-6.4C336.63 189.5 320 200.86 320 216v32a8 8 0 0 1-16 0V50c0-26.28-20.25-49.2-46.52-50A48 48 0 0 0 208 48v200a8 8 0 0 1-16 0v-32c0-15.15-16.63-26.51-34.45-23.54l-30.68 5.12c-18 3-30.87 16.12-30.87 31.38V376a8 8 0 0 1-16 0v-76l-27.36 15A37.34 37.34 0 0 0 32 348.4v73.47a37.31 37.31 0 0 0 10.93 26.39l30.93 30.93A112 112 0 0 0 153.05 512h215A112 112 0 0 0 480 400z"/>
</g>
</svg>
